X:499
T:Reel 499
M:4/4
K:Dmaj
L:1/8
dBcA FAAF|dcAF GEEc|dBAF D2EF|GBAG FDDc|dBAF GFEF|GBAF GFEF|DFEG  (3FGA Bd|cABc d2dB|Adfd edfd|Adfd cdeg|adfd cdeg|abag fddc| (3dcd fd fagd|gfed cdeg|afge fdec|dABG FDD2|
